{ "compressionlevel":-1,
 "height":15,
 "infinite":false,
 "layers":[
        {
         "data":[13, 13, 13, 13, 13, 13, 13, 13, 13, 13, 13, 13, 13, 13, 13, 13, 13, 13, 13, 13,
            13, 15, 13, 13, 13, 13, 15, 13, 15, 13, 13, 13, 13, 13, 13, 13, 13, 13, 13, 13,
            0, 13, 13, 0, 13, 13, 13, 19, 0, 19, 19, 2, 19, 0, 0, 19, 19, 15, 13, 13,
            0, 0, 13, 13, 0, 13, 13, 19, 0, 19, 0, 19, 2, 19, 0, 19, 13, 13, 15, 13,
            0, 0, 0, 0, 0, 0, 0, 14, 14, 13, 13, 13, 13, 13, 13, 19, 19, 13, 13, 13,
            0, 0, 0, 0, 0, 0, 0, 0, 0, 0, 13, 19, 0, 0, 19, 19, 19, 19, 19, 19,
            0, 0, 0, 0, 0, 0, 0, 0, 4, 19, 19, 0, 0, 19, 0, 19, 4, 2, 19, 0,
            0, 0, 0, 0, 0, 0, 0, 13, 13, 13, 0, 0, 0, 19, 15, 15, 13, 13, 0, 0,
            0, 0, 0, 0, 0, 0, 0, 0, 0, 13, 0, 0, 0, 0, 0, 0, 13, 19, 0, 0,
            0, 0, 7, 0, 0, 0, 0, 0, 0, 0, 0, 0, 0, 0, 0, 0, 13, 0, 0, 0,
            0, 13, 13, 13, 0, 0, 0, 0, 0, 0, 0, 0, 0, 13, 0, 0, 13, 0, 0, 0,
            0, 13, 13, 13, 0, 15, 15, 0, 0, 0, 0, 0, 0, 0, 0, 0, 13, 19, 0, 0,
            0, 13, 13, 13, 0, 0, 19, 0, 0, 0, 0, 0, 0, 0, 0, 2, 13, 19, 1, 0,
            0, 13, 13, 13, 0, 0, 19, 0, 0, 13, 13, 0, 0, 0, 0, 13, 13, 13, 13, 13,
            0, 13, 13, 13, 0, 0, 0, 19, 0, 0, 19, 0, 0, 0, 0, 19, 0, 19, 19, 0],
         "height":15,
         "id":1,
         "name":"Tile Layer 1",
         "opacity":1,
         "type":"tilelayer",
         "visible":true,
         "width":20,
         "x":0,
         "y":0
        }],
 "nextlayerid":2,
 "nextobjectid":1,
 "orientation":"orthogonal",
 "renderorder":"right-down",
 "tiledversion":"1.11.2",
 "tileheight":32,
 "tilesets":[
        {
         "firstgid":1,
         "source":"..\/tileset.tsx"
        }],
 "tilewidth":40,
 "type":"map",
 "version":"1.10",
 "width":20
}